svg/SJJB-OpenStreetMapIcons/transport/parking_disabled.svg

<?xml version="1.0" encoding="UTF-8" standalone="no"?>
<!-- Created with Inkscape (http://www.inkscape.org/) -->
<svg
   xmlns:dc="http://purl.org/dc/elements/1.1/"
   xmlns:cc="http://creativecommons.org/ns#"
   xmlns:rdf="http://www.w3.org/1999/02/22-rdf-syntax-ns#"
   xmlns:svg="http://www.w3.org/2000/svg"
   xmlns="http://www.w3.org/2000/svg"
   xmlns:sodipodi="http://sodipodi.sourceforge.net/DTD/sodipodi-0.dtd"
   xmlns:inkscape="http://www.inkscape.org/namespaces/inkscape"
   version="1.0"
   width="580"
   height="580"
   id="svg2"
   sodipodi:version="0.32"
   inkscape:version="0.46"
   sodipodi:docname="parking_disabled.svg"
   inkscape:output_extension="org.inkscape.output.svg.inkscape">
  <metadata
     id="metadata10">
    <rdf:RDF>
      <cc:Work
         rdf:about="">
        <dc:format>image/svg+xml</dc:format>
        <dc:type
           rdf:resource="http://purl.org/dc/dcmitype/StillImage" />
			  <cc:license
           rdf:resource="http://web.resource.org/cc/PublicDomain" />
        <dc:language>en</dc:language>
      </cc:Work>
    </rdf:RDF>
  </metadata>
  <sodipodi:namedview
     inkscape:window-height="1003"
     inkscape:window-width="1400"
     inkscape:pageshadow="2"
     inkscape:pageopacity="0.0"
     guidetolerance="10.0"
     gridtolerance="10.0"
     objecttolerance="10.0"
     borderopacity="1.0"
     bordercolor="#666666"
     pagecolor="#ffffff"
     id="base"
     showgrid="false"
     inkscape:zoom="0.35355339"
     inkscape:cx="1259.5915"
     inkscape:cy="195.50635"
     inkscape:window-x="0"
     inkscape:window-y="0"
     inkscape:current-layer="svg2" />
  <defs
     id="defs4">
    <inkscape:perspective
       sodipodi:type="inkscape:persp3d"
       inkscape:vp_x="0 : 290 : 1"
       inkscape:vp_y="0 : 1000 : 0"
       inkscape:vp_z="580 : 290 : 1"
       inkscape:persp3d-origin="290 : 193.33333 : 1"
       id="perspective12" />
    <style
       type="text/css"
       id="style6">
   
    .fil0 {fill:#EF7900}
   
  </style>
    <inkscape:perspective
       id="perspective6807"
       inkscape:persp3d-origin="29.116032 : 19.410688 : 1"
       inkscape:vp_z="58.232063 : 29.116032 : 1"
       inkscape:vp_y="0 : 1000 : 0"
       inkscape:vp_x="0 : 29.116032 : 1"
       sodipodi:type="inkscape:persp3d" />
    <inkscape:perspective
       id="perspective6954"
       inkscape:persp3d-origin="290 : 193.33333 : 1"
       inkscape:vp_z="580 : 290 : 1"
       inkscape:vp_y="0 : 1000 : 0"
       inkscape:vp_x="0 : 290 : 1"
       sodipodi:type="inkscape:persp3d" />
    <inkscape:perspective
       id="perspective2541"
       inkscape:persp3d-origin="240 : 160 : 1"
       inkscape:vp_z="480 : 240 : 1"
       inkscape:vp_y="0 : 1000 : 0"
       inkscape:vp_x="0 : 240 : 1"
       sodipodi:type="inkscape:persp3d" />
  </defs>
  <g
     id="g1327">
    <path
       d="M 66.275,1.768 C 24.94,1.768 1.704,23.139 1.704,66.804 L 1.704,516.927 C 1.704,557.771 22.598,579.156 63.896,579.156 L 515.92,579.156 C 557.227,579.156 578.149,558.84 578.149,516.927 L 578.149,66.804 C 578.149,24.203 557.227,1.768 514.627,1.768 C 514.624,1.768 66.133,1.625 66.275,1.768 z"
       style="fill:#111111;stroke:#eeeeee;stroke-width:3.40799999"
       id="path1329" />
  </g>
  <g
     transform="matrix(0.6625094,0,0,0.640796,136.38827,93.962517)"
     inkscape:label="Ebene 1"
     id="layer1"
     style="fill:#ffffff">
    <path
       style="fill:#ffffff"
       sodipodi:nodetypes="cccccccccccccccccccccccccccc"
       id="path1631"
       d="M 475.14239,512.18475 C 455.98022,507.82608 355.63011,511.46176 326.61273,511.45765 C 325.71817,448.40152 325.49175,385.33666 324.95769,322.27616 C 306.90185,303.3047 316.35912,268.99957 341.47238,261.63101 C 366.33467,251.38896 397.00821,274.41644 392.9612,301.45924 C 394.05008,322.82207 369.20964,328.02258 360.82849,339.80159 C 360.22642,364.7506 359.67445,389.78618 361.1968,414.70072 C 394.99835,417.41822 429.25883,415.41662 463.26461,415.88181 C 463.26461,426.84659 463.26461,437.81138 463.26461,448.77616 C 429.95472,448.77616 396.64484,448.77616 363.33495,448.77616 C 355.12082,467.7601 363.27055,483.41896 361.46514,481.67273 C 399.06092,481.85538 460.65743,481.74632 498.25356,481.77616 C 519.8184,526.09655 540.56669,571.03397 562.33619,615.10231 C 585.20389,612.33784 601.8056,599.41482 610.49782,598.85868 C 620.02186,598.03601 620.26631,628.40996 619.21194,627.50546 C 598.78942,634.85834 566.55746,650.7486 546.02023,657.77617 C 540.84192,649.38539 494.42324,551.84326 475.14239,512.18475 z M 358.74924,701.28513 C 313.89925,696.29491 282.53144,682.88945 258.60122,661.39393 C 224.38105,631.56517 204.61044,585.48831 209.87972,539.92978 C 212.43349,488.27629 246.91682,441.52959 292.5749,418.84829 C 299.82092,425.55951 294.94651,442.87901 296.24292,454.29174 C 298.17472,464.19329 285.0523,466.91187 280.24747,473.7567 C 246.33625,506.2488 238.90725,561.67428 260.34286,603.08127 C 283.01946,650.13041 340.39421,679.64452 391.57378,665.24716 C 429.9463,655.60354 460.34575,626.64192 480.54345,593.67296 C 488.98781,600.44577 506.98711,629.12461 488.76424,641.77672 C 457.9627,680.46369 408.61325,704.72754 358.74924,701.28513 z" />
  </g>
  <path
     style="font-size:143.53205872px;font-style:normal;font-weight:normal;fill:#ffffff;fill-opacity:1;stroke:none;stroke-width:1px;stroke-linecap:butt;stroke-linejoin:miter;stroke-opacity:1;font-family:Bitstream Vera Sans"
     d="M 51.169832,422.698 L 51.169832,52.822635 L 190.69308,52.822635 C 215.25031,52.822995 234.00478,54.000415 246.95653,56.354865 C 265.12205,59.382855 280.34428,65.143755 292.62327,73.637585 C 304.90169,82.132105 314.78353,94.032355 322.2688,109.33837 C 329.75346,124.64502 333.49594,141.46516 333.49626,159.79886 C 333.49594,191.25279 323.48795,217.87067 303.47227,239.65258 C 283.45601,261.43485 247.29269,272.3259 194.98222,272.32575 L 100.1165,272.32575 L 100.1165,422.698 L 51.169832,422.698 z M 100.1165,228.67742 L 195.73913,228.67742 C 227.36082,228.67762 249.81571,222.79057 263.10388,211.01625 C 276.39154,199.24236 283.0355,182.67452 283.03577,161.31267 C 283.0355,145.8384 279.12482,132.59254 271.30371,121.57504 C 263.48208,110.55814 253.17974,103.28343 240.39666,99.750885 C 232.15456,97.564585 216.93233,96.471275 194.72992,96.470955 L 100.1165,96.470955 L 100.1165,228.67742 z"
     id="text2419" />
</svg>

<svg xmlns="http://www.w3.org/2000/svg" viewBox="0 0 580 580"><path d="m66.28 1.768c-41.34 0-64.57 21.371-64.57 65.04v450.12c0 40.844 20.894 62.23 62.19 62.23h452.02c41.31 0 62.23-20.316 62.23-62.23v-450.12c0-42.601-20.922-65.04-63.52-65.04-.003 0-448.49-.143-448.35 0z" fill="#111" stroke="#eee" stroke-width="3.408"/><g fill="#fff"><path d="m475.14 512.18c-19.16-4.359-119.51-.723-148.53-.727-.895-63.06-1.121-126.12-1.655-189.18-18.06-18.971-8.599-53.28 16.515-60.65 24.862-10.242 55.54 12.785 51.49 39.828 1.089 21.363-23.752 26.563-32.13 38.34-.602 24.949-1.154 49.985.368 74.899 33.802 2.718 68.06.716 102.07 1.181 0 10.965 0 21.93 0 32.894-33.31 0-66.62 0-99.93 0-8.214 18.984-.064 34.643-1.87 32.897 37.596.183 99.19.074 136.79.103 21.565 44.32 42.31 89.26 64.08 133.33 22.868-2.764 39.469-15.687 48.16-16.244 9.524-.823 9.768 29.551 8.714 28.647-20.423 7.353-52.654 23.24-73.19 30.27-5.178-8.391-51.597-105.93-70.878-145.59m-116.39 189.1c-44.85-4.99-76.22-18.396-100.15-39.891-34.22-29.829-53.991-75.906-48.722-121.46 2.554-51.653 37.04-98.4 82.7-121.08 7.246 6.711 2.372 24.03 3.668 35.443 1.932 9.902-11.191 12.62-15.995 19.465-33.911 32.492-41.34 87.92-19.905 129.32 22.677 47.05 80.05 76.56 131.23 62.17 38.37-9.644 68.772-38.605 88.97-71.57 8.444 6.773 26.444 35.452 8.221 48.1-30.802 38.687-80.15 62.951-130.01 59.51" fill="#fff" transform="matrix(.66251 0 0 .6408 136.39 93.96)"/></g><path d="m51.17 422.7v-369.88h139.52c24.557 0 43.31 1.178 56.26 3.532 18.17 3.03 33.388 8.789 45.667 17.283 12.278 8.495 22.16 20.395 29.646 35.701 7.485 15.307 11.227 32.13 11.227 50.46 0 31.454-10.01 58.07-30.02 79.85-20.02 21.782-56.18 32.673-108.49 32.673h-94.87v150.37h-48.947m48.947-194.02h95.62c31.622 0 54.08-5.887 67.36-17.661 13.288-11.774 19.932-28.342 19.932-49.704 0-15.474-3.911-28.72-11.732-39.738-7.822-11.02-18.12-18.292-30.907-21.824-8.242-2.186-23.464-3.28-45.667-3.28h-94.61v132.21" fill="#fff"/></svg>
